X:142
T:Hazel Hawkins
R:air                                              
C: 2009, 2010 L.E. McCullough 
M:4/4
L:1/8
K:Gmajor
DE||G2GF HG2 AB|cBAG BHA DE|G2GF GABd|
edgf He2 gd|eGce dB2 B/d/|eGed HA2 GF|
G3B A3d|BABd Hg2 ed|BAAG AHD EG|G8-|G6EG|G8|]
<end>
<start>
